lib/images/Icon_report.svg

<svg width="100" height="62" viewBox="0 0 100 62" fill="none" xmlns="http://www.w3.org/2000/svg">
<path d="M64.3 17V1H40.3C38.0909 1 36.3 2.79086 36.3 5V61H76.3001C78.5092 61 80.3001 59.2091 80.3001 57V17H64.3Z" fill="white"/>
<path d="M80.3001 17L64.3 1V17H80.3001Z" fill="white"/>
<path opacity="0.15" d="M59.4 1V24H80.3V17H64.3V1H59.4Z" fill="#000064"/>
<path d="M71.1 36.1001C71 43.2001 65.2 49.0001 58.1 48.9001C51 48.8001 45.2 43.0001 45.3 35.9001C45.4 28.8001 51.1 23.1001 58.2 23.1001H59.3V36.1001H71.1Z" fill="#FF8B76"/>
<path d="M59.3 36.1H73.3C73.3 28.2 67.2 21.6 59.3 21V36.1Z" fill="#61E0B2"/>
<path d="M36.3 61H76.3001C78.5092 61 80.3001 59.2091 80.3001 57V17L64.3 1H40.3C38.0909 1 36.3 2.79086 36.3 5V32.7" stroke="#2E4369" stroke-width="2" stroke-miterlimit="10" stroke-linecap="round" stroke-linejoin="round"/>
<path d="M71.1 35.9C71.1 43 65.3001 48.8 58.2001 48.8C51.1001 48.8 45.3 43 45.3 35.9C45.3 28.8 51.0001 23 58.2001 23H59.3M64.3 1V17H80.3001L64.3 1Z" stroke="#2E4369" stroke-width="2" stroke-miterlimit="10" stroke-linecap="round" stroke-linejoin="round"/>
<path d="M59.3 35.8999H73.3C73.3 27.9999 67.2 21.4999 59.3 20.8999V35.8999Z" stroke="#2E4369" stroke-width="2" stroke-miterlimit="10" stroke-linecap="round" stroke-linejoin="round"/>
<path d="M11 61H25" stroke="#2E4369" stroke-width="2" stroke-linecap="round" stroke-linejoin="round"/>
<path d="M13 33H25" stroke="#2E4369" stroke-width="2" stroke-linecap="round" stroke-linejoin="round"/>
<path d="M25 42H31" stroke="#2E4369" stroke-width="2" stroke-linecap="round" stroke-linejoin="round"/>
<path d="M36.3 42H36.31" stroke="#2E4369" stroke-width="2" stroke-linecap="round" stroke-linejoin="round"/>
<path d="M36.3 51H36.31" stroke="#2E4369" stroke-width="2" stroke-linecap="round" stroke-linejoin="round"/>
<path d="M17 51H28" stroke="#2E4369" stroke-width="2" stroke-linecap="round" stroke-linejoin="round"/>
</svg>

<svg width="100" height="62" fill="none" xmlns="http://www.w3.org/2000/svg"><path d="M64.3 17V1h-24a4 4 0 00-4 4v56h40a4 4 0 004-4V17h-16z" fill="#fff"/><path d="M80.3 17l-16-16v16h16z" fill="#fff"/><path opacity=".15" d="M59.4 1v23h20.9v-7h-16V1h-4.9z" fill="#000064"/><path d="M71.1 36.1c-.1 7.1-5.9 12.9-13 12.8-7.1-.1-12.9-5.9-12.8-13 .1-7.1 5.8-12.8 12.9-12.8h1.1v13h11.8z" fill="#FF8B76"/><path d="M59.3 36.1h14c0-7.9-6.1-14.5-14-15.1v15.1z" fill="#61E0B2"/><path d="M36.3 61h40a4 4 0 004-4V17l-16-16h-24a4 4 0 00-4 4v27.7" stroke="#2E4369" stroke-width="2" stroke-miterlimit="10" stroke-linecap="round" stroke-linejoin="round"/><path d="M71.1 35.9c0 7.1-5.8 12.9-12.9 12.9-7.1 0-12.9-5.8-12.9-12.9C45.3 28.8 51 23 58.2 23h1.1m5-22v16h16l-16-16z" stroke="#2E4369" stroke-width="2" stroke-miterlimit="10" stroke-linecap="round" stroke-linejoin="round"/><path d="M59.3 35.9h14c0-7.9-6.1-14.4-14-15v15z" stroke="#2E4369" stroke-width="2" stroke-miterlimit="10" stroke-linecap="round" stroke-linejoin="round"/><path d="M11 61h14M13 33h12m0 9h6m5.3 0h.01m-.01 9h.01M17 51h11" stroke="#2E4369" stroke-width="2" stroke-linecap="round" stroke-linejoin="round"/></svg>
